src/lib/packages/icons/src/assets/filled/like.svg

<svg width="24" height="24" viewBox="0 0 24 24" fill="none" xmlns="http://www.w3.org/2000/svg">
<path d="M6.5 11.3V20.7C6.5 20.866 6.36595 21 6.19995 21H4.5C3.672 21 3 20.328 3 19.5V12.5C3 11.672 3.672 11 4.5 11H6.19995C6.36495 11 6.5 11.134 6.5 11.3ZM17.8979 9H13.998V5.76001C13.998 4.76001 13.498 3.82002 12.658 3.27002C12.388 3.09002 12.078 3 11.778 3C11.148 3 10.538 3.38003 10.298 4.03003L8.01294 10.954C8.00294 10.984 7.99805 11.016 7.99805 11.048V20.7C7.99805 20.866 8.13197 21 8.29797 21H15.897C17.907 21 18.3369 20.17 18.7469 18.95L20.7469 12.95C21.3979 11.01 20.9079 9 17.8979 9Z" fill="currentColor"/>
</svg>

<svg xmlns="http://www.w3.org/2000/svg" width="24" height="24" fill="none"><path fill="currentColor" d="M6.5 11.3v9.4a.3.3 0 0 1-.3.3H4.5A1.5 1.5 0 0 1 3 19.5v-7A1.5 1.5 0 0 1 4.5 11h1.7a.3.3 0 0 1 .3.3ZM17.898 9h-3.9V5.76c0-1-.5-1.94-1.34-2.49a1.574 1.574 0 0 0-2.36.76l-2.285 6.924a.298.298 0 0 0-.015.094V20.7a.3.3 0 0 0 .3.3h7.599c2.01 0 2.44-.83 2.85-2.05l2-6c.65-1.94.16-3.95-2.85-3.95Z"/></svg>
